X:191
T:The Scottish Jig
M:6/8
L:1/8
R:jig
N:Learned from Howard Chu
Z:Michael Abraham Shulman
K:A
|:~B3 f2B|fBB f2B|fBB f2B|cBA ecA|~B3 f2B|fBB f2B|fga eae|c2A ABA:|
|:a3 f2e|fBB f2B|a3 f2e|cBA ecA|a3 f2e|fBB f2B|fga eae|c2A ABA:|
|:~B3 c3|Bce f3|~c3 c2B|cAA ~A3|~B3 c3|Bce f2e|fga eae|c2A ABA:|
|:a3 f2e|fBB f2B|a3 f2e|cBA ecA|a3 f2e|fBB f2B|fga eae|c2A ABA:|
